packages/vitzik-app/public/img/svg/instruments/instrument_Marimba.svg

<?xml version="1.0" encoding="utf-8"?>
<!-- Generator: Adobe Illustrator 25.0.0, SVG Export Plug-In . SVG Version: 6.00 Build 0)  -->
<svg version="1.1" xmlns="http://www.w3.org/2000/svg" xmlns:xlink="http://www.w3.org/1999/xlink" x="0px" y="0px"
	 viewBox="0 0 48 48" style="enable-background:new 0 0 48 48;" xml:space="preserve">
<style type="text/css">
	.st0{fill:#F5DAA7;}
	.st1{fill:#EDC472;}
	.st2{fill:#BC9B5B;}
	.st3{fill:#9A6A53;}
	.st4{fill:#855B47;}
	.st5{fill:#F4E2C1;}
	.st6{fill:#F7F7F7;}
	.st7{fill:#C8C3CA;}
	.st8{fill:#B78C7A;}
	.st9{fill:#7A5341;}
	.st10{fill:#704C3B;}
	.st11{fill:#CF9875;}
	.st12{fill:#C7865B;}
	.st13{clip-path:url(#SVGID_3_);}
	.st14{clip-path:url(#SVGID_4_);fill:#FFFFFF;stroke:#231F20;stroke-miterlimit:10;}
	.st15{fill:#FFFFFF;stroke:#231F20;stroke-miterlimit:10;}
	.st16{fill:none;stroke:#000000;stroke-width:4.5;stroke-miterlimit:10;}
	.st17{fill:#463C4B;}
	.st18{fill:#555A6E;}
	.st19{fill:#F06423;}
	.st20{fill:#FAA51E;}
	.st21{fill:#D7E6F0;}
	.st22{fill:#DADADA;}
	.st23{fill:#C4C6C6;}
	.st24{fill:#EDEEEF;}
	.st25{fill:#797981;}
	.st26{fill:#5A5A63;}
	.st27{fill:#494951;}
	.st28{fill:#29BAED;}
	.st29{fill:#DD9554;}
	.st30{fill:#CC8244;}
	.st31{fill:#805333;}
	.st32{fill:#A56A43;}
	.st33{fill:#CB8252;}
	.st34{fill:#ECF0F1;}
	.st35{fill:#603E26;}
	.st36{fill:#F9EAB0;}
	.st37{fill:#F5EFCA;}
	.st38{fill:#464F5D;}
	.st39{fill:#F3D55B;}
	.st40{fill:#6F6571;}
	.st41{fill:#4B3F4E;}
	.st42{fill:#5D5360;}
	.st43{fill:#857E87;}
	.st44{fill:#ECEAEC;}
	.st45{fill:#DAD8DB;}
	.st46{fill:#B3E59F;}
	.st47{fill:#CCF49F;}
	.st48{fill:#792A47;}
	.st49{fill:#A62B38;}
	.st50{fill:#D22D28;}
	.st51{fill:#FF2F19;}
	.st52{fill:#FFFFFF;}
	.st53{fill:#202666;}
	.st54{fill:#FDE6BB;}
	.st55{fill:#FE501F;}
	.st56{fill:#FD7226;}
	.st57{fill:#FCCD76;}
	.st58{fill:#FB932C;}
	.st59{fill:#4D2857;}
	.st60{fill:#B19046;}
	.st61{fill:#F0C419;}
	.st62{fill:#24AE5F;}
	.st63{fill:#E64C3C;}
	.st64{fill:#3B97D3;}
	.st65{fill:#E74444;}
	.st66{fill:#CE3536;}
	.st67{fill:#D9DBDD;}
	.st68{fill:#E8EDF1;}
	.st69{fill:#F3DB70;}
	.st70{fill:#D5DAF3;}
	.st71{fill:#A2AEE6;}
	.st72{fill:#FFC344;}
	.st73{fill:#FFE177;}
	.st74{fill:#BEC6ED;}
	.st75{fill:#8795DE;}
	.st76{fill-rule:evenodd;clip-rule:evenodd;fill:#A46A5A;}
	.st77{fill-rule:evenodd;clip-rule:evenodd;fill:#845252;}
	.st78{fill-rule:evenodd;clip-rule:evenodd;fill:#FFD05B;}
	.st79{fill-rule:evenodd;clip-rule:evenodd;fill:#704242;}
	.st80{fill-rule:evenodd;clip-rule:evenodd;fill:#FFC244;}
	.st81{fill-rule:evenodd;clip-rule:evenodd;fill:#596C76;}
	.st82{fill-rule:evenodd;clip-rule:evenodd;fill:#465A61;}
	.st83{fill:#A46A5A;}
	.st84{fill:#607D8B;}
	.st85{fill:#9C27B0;}
	.st86{fill:#03A9F4;}
	.st87{fill:#8BC34A;}
	.st88{fill:#FFC107;}
	.st89{fill:#FF9800;}
	.st90{fill:#F44336;}
	.st91{fill:#D7CCC8;}
	.st92{fill:#F57C00;}
	.st93{fill:#F9BB4B;}
	.st94{fill:#FCF05A;}
	.st95{fill:#66342E;}
	.st96{fill:#D3843D;}
	.st97{fill:#704C55;}
	.st98{fill:#5A344B;}
	.st99{fill:#E63950;}
	.st100{fill:#EFE2DD;}
	.st101{fill:#FF435B;}
	.st102{fill:#FFF5F5;}
	.st103{fill:#9B786F;}
	.st104{fill:#925CB4;}
	.st105{fill:#814BA2;}
	.st106{fill:#6F3F8A;}
	.st107{fill:#FFD185;}
	.st108{fill:#FFBA48;}
	.st109{fill:#FF5A35;}
	.st110{fill:#FF7A3C;}
	.st111{fill:#FFE8C2;}
	.st112{fill:#4F4F4F;}
	.st113{fill:#FF3A2F;}
	.st114{fill:#353535;}
	.st115{fill:#FB4A59;}
	.st116{fill:#F82F40;}
	.st117{fill:#3F5959;}
	.st118{fill:#384848;}
	.st119{fill:#EFF5F6;}
	.st120{fill:#CBE5E7;}
	.st121{fill:#FCC16D;}
	.st122{fill:#FCB44D;}
	.st123{fill:#A66856;}
	.st124{fill:#735458;}
	.st125{fill:#FFDEA9;}
	.st126{fill:#5C4346;}
	.st127{fill:#8F5040;}
	.st128{fill:#595959;}
	.st129{fill:#7F221C;}
	.st130{fill:#913122;}
	.st131{fill:#FFEFB0;}
	.st132{fill:#DB2116;}
	.st133{fill:#883F2E;}
	.st134{fill:#A44F3E;}
	.st135{fill:#D8AA5E;}
	.st136{fill:#E9B665;}
	.st137{fill:#E19974;}
	.st138{fill:#FFEFD2;}
	.st139{fill:#D7D0D6;}
	.st140{fill:#E8AD8C;}
	.st141{fill:#6D3326;}
	.st142{fill:#BA5D4F;}
	.st143{fill:#F5A871;}
	.st144{fill:#E89A5E;}
	.st145{fill:#A34F41;}
	.st146{fill:#D68A5A;}
	.st147{fill:#FFE5C4;}
	.st148{fill:#FDD1A7;}
	.st149{fill:#873F30;}
	.st150{fill:#C86F5C;}
	.st151{fill:#6C3328;}
	.st152{fill:#54231D;}
	.st153{fill:#B5B1B3;}
	.st154{fill:#FEC93E;}
	.st155{fill:#EFB533;}
	.st156{fill:#F7A738;}
	.st157{fill:#EA952F;}
	.st158{fill:#FD6E2E;}
	.st159{fill:#EA551B;}
	.st160{fill:#F5A257;}
	.st161{fill:#DB8F52;}
	.st162{fill:#75360D;}
	.st163{fill:#FFBF7B;}
	.st164{fill:#00CCB2;}
	.st165{fill:#00AB94;}
	.st166{fill:#FEA832;}
	.st167{fill:#FF8700;}
	.st168{fill:#00EED0;}
	.st169{fill:#FFD400;}
	.st170{fill:#FDBF00;}
	.st171{fill:#08B865;}
	.st172{fill:#E41F2D;}
	.st173{fill:#FD4755;}
	.st174{fill:#FB2B3A;}
	.st175{fill:#FED2A4;}
	.st176{fill:#FFE5C2;}
	.st177{fill:#FFBD86;}
	.st178{fill:#FE99A0;}
	.st179{fill:#FD8087;}
	.st180{fill:#C57A44;}
	.st181{fill:#09A755;}
	.st182{fill:#FEDF30;}
	.st183{fill:#FED402;}
	.st184{fill:#FAC600;}
	.st185{fill:#46CC8D;}
	.st186{fill:#00C27A;}
	.st187{fill:#FE7701;}
	.st188{fill:#FE860A;}
	.st189{fill:#C41926;}
	.st190{fill:#E89C5D;}
	.st191{fill:#F4B37D;}
	.st192{fill:#E8626C;}
	.st193{fill:#40C6C2;}
	.st194{fill:#FFC999;}
	.st195{fill:#4A4A68;}
	.st196{fill:#333356;}
	.st197{fill:#EDEDED;}
	.st198{fill:#C9C9C9;}
	.st199{fill:#FF9900;}
	.st200{fill:#FFCE00;}
	.st201{fill:#FBBD00;}
	.st202{fill:#ED8100;}
	.st203{fill:#FFE431;}
	.st204{fill:#FF9F00;}
	.st205{fill:#FFE666;}
	.st206{fill:#FFBF00;}
	.st207{fill:#FCCD31;}
	.st208{fill:#F2B016;}
	.st209{fill:#4A4D4F;}
	.st210{fill:#D3CBC2;}
	.st211{fill:#6D7072;}
	.st212{fill:#BAAFA6;}
	.st213{fill:#888C8E;}
	.st214{fill:#B4B4B4;}
	.st215{fill:#FFE999;}
	.st216{fill:#FFCF3B;}
	.st217{fill:#C1C1C1;}
	.st218{fill:#FFBC19;}
	.st219{fill:#94E6FF;}
	.st220{fill:#315F83;}
	.st221{fill:#267EA8;}
	.st222{fill:#3B3F5F;}
	.st223{fill:#D8F2FB;}
	.st224{fill:#35495E;}
	.st225{fill:#556080;}
	.st226{fill:#E4C05C;}
	.st227{fill:#E4C05C;stroke:#E4C05C;stroke-width:2;stroke-linecap:round;stroke-linejoin:round;stroke-miterlimit:10;}
	.st228{fill:#B57F5F;}
	.st229{fill:#966A5B;}
	.st230{fill:#FFD15B;}
	.st231{fill:#A5C3DC;}
	.st232{fill:#8697CB;}
	.st233{fill:#E0E0E0;}
	.st234{fill:#CCCCCC;}
	.st235{fill:#8E8E8E;}
	.st236{fill:#A0A0A0;}
	.st237{fill:#E13732;}
	.st238{fill:#F05055;}
	.st239{fill:#D24605;}
	.st240{fill:#FFCE53;}
	.st241{fill:#FFB833;}
	.st242{fill:#4999D1;}
	.st243{fill:#43AAF0;}
	.st244{fill:#FF2E23;}
	.st245{fill:#FF4A26;}
	.st246{fill:#C6805D;}
	.st247{fill:#77CC7D;}
	.st248{fill:#52BD7E;}
	.st249{fill:#98DB7C;}
	.st250{fill:#D48C64;}
	.st251{fill:#FFD18D;}
	.st252{fill:#FBBD80;}
	.st253{fill:#F3B573;}
	.st254{fill:#434A54;}
	.st255{fill:#DA4453;}
	.st256{fill:#FFCE54;}
	.st257{fill:#ED5564;}
	.st258{fill-rule:evenodd;clip-rule:evenodd;fill:#4BC3EF;}
	.st259{fill-rule:evenodd;clip-rule:evenodd;fill:#1BADDE;}
	.st260{fill-rule:evenodd;clip-rule:evenodd;fill:#DBD8DB;}
	.st261{fill-rule:evenodd;clip-rule:evenodd;fill:#C9BFC8;}
	.st262{fill:#421815;}
	.st263{fill:#FCB982;}
	.st264{fill:#FDDBBF;}
	.st265{fill:#FCCA9F;}
	.st266{fill:#C6865C;}
	.st267{fill:#B16E3D;}
	.st268{fill:#454545;}
	.st269{fill:#EFECEF;}
	.st270{fill:#E2DFE2;}
	.st271{fill:#3F3736;}
	.st272{fill:#C4755B;}
	.st273{fill:#FFE3A1;}
	.st274{fill-rule:evenodd;clip-rule:evenodd;fill:#D48C64;}
	.st275{fill:#DBD8DB;}
	.st276{fill:#BB5D4C;}
	.st277{fill:#465A61;}
	.st278{fill:#596C76;}
	.st279{fill:#E5E1E5;}
	.st280{fill:#7A8C98;}
	.st281{fill:#FEDBA6;}
	.st282{fill:#EAB14D;}
	.st283{fill:#617881;}
	.st284{fill:#E28086;}
	.st285{fill:#DD636E;}
	.st286{fill:#FFE07D;}
	.st287{fill:#ECBE6B;}
	.st288{fill:#E9EDF5;}
	.st289{fill:#CDD2E1;}
	.st290{fill:#FFAA00;}
	.st291{fill:#FF9500;}
	.st292{fill:#555A65;}
	.st293{fill:#333940;}
	.st294{fill:#E6A373;}
	.st295{fill:#CC8552;}
	.st296{fill:#FFDF40;}
	.st297{fill:#FFBE40;}
	.st298{fill:#FF9F40;}
	.st299{fill:#F77E00;}
	.st300{fill:#FFF04A;}
	.st301{fill:#00DDC1;}
	.st302{fill:#A24603;}
	.st303{fill:#F2D813;}
	.st304{fill:#803602;}
	.st305{fill:#3A3A3A;}
	.st306{fill:#AFAFAF;}
	.st307{fill:#686868;}
	.st308{fill:#925A15;}
	.st309{fill:#F3F2F6;}
	.st310{fill:#BF7D5A;}
	.st311{fill:#AA6256;}
	.st312{fill:#894E46;}
	.st313{fill:#DBA660;}
	.st314{fill:#E49542;}
	.st315{fill:#F9EFDA;}
	.st316{fill:#756E78;}
	.st317{fill:#665E66;}
	.st318{fill:#F9F6F9;}
	.st319{fill:#BC6C59;}
	.st320{fill:#994B39;}
	.st321{fill:#FEEC96;}
	.st322{fill:#F5DB64;}
	.st323{fill:#5D5E69;}
	.st324{fill:#FFE09F;}
	.st325{fill:#ECBD83;}
	.st326{fill:#F6D190;}
	.st327{fill:#FF8086;}
	.st328{fill:#E5646E;}
	.st329{fill:#357DA3;}
	.st330{fill:#F48A3B;}
	.st331{fill:#FFC233;}
	.st332{fill:#CDDEE0;}
	.st333{fill:#C8C5C9;}
	.st334{fill:#785353;}
	.st335{fill:#6E4848;}
	.st336{fill:#B7E4F8;}
	.st337{fill:#93D6F4;}
	.st338{fill:#DBF1FB;}
	.st339{fill:#8DCAFC;}
	.st340{fill:#64B9FC;}
	.st341{fill:#C4E1FF;}
	.st342{fill:#B5DBFD;}
	.st343{fill:#FEE7C9;}
	.st344{fill:#FFD496;}
	.st345{fill:#A3E440;}
	.st346{fill:#99D53B;}
	.st347{fill:#BCEA73;}
	.st348{fill:#C76D3D;}
	.st349{fill:#AA5E33;}
	.st350{fill:#D67F4F;}
	.st351{fill:#8DC637;}
	.st352{fill:#A79BA7;}
	.st353{fill:#7A6D79;}
	.st354{fill:#C4E2FF;}
	.st355{fill:#60B7FF;}
	.st356{fill:#B3DAFE;}
	.st357{fill:#F3F0F3;}
	.st358{fill:#EFEDEF;}
	.st359{fill:#CBC4CC;}
	.st360{fill:#26A6FE;}
	.st361{fill:#D2555A;}
	.st362{fill:#FF6464;}
	.st363{fill:#D7DEED;}
	.st364{fill:#B8BFD4;}
	.st365{fill:#959CB3;}
	.st366{fill:#F8C460;}
	.st367{fill:#FAAF42;}
	.st368{fill:#7A838B;}
	.st369{fill:#5D6972;}
	.st370{fill:#A7D0E1;}
	.st371{fill:#80BBCE;}
	.st372{fill:#FFD8CA;}
	.st373{fill:#FFBFAE;}
	.st374{fill:#FFE5D8;}
	.st375{fill:#E5EEF9;}
	.st376{fill:#56595E;}
	.st377{fill:#7F8284;}
	.st378{fill:#A5A5A4;}
	.st379{fill:#95A5A5;}
	.st380{fill:#BDC3C7;}
	.st381{fill:#7F8C8D;}
</style>
<g id="Acoustic_Grand_Keyboard">
	<g>
		<g>
			<g>
				<path class="st76" d="M2.86,18v29.71c0,0.16,0.13,0.29,0.29,0.29h3.08c0.16,0,0.29-0.13,0.29-0.29V18H2.86z"/>
			</g>
			<g>
				<path class="st76" d="M41.39,18v29.71c0,0.16,0.13,0.29,0.29,0.29h3.08c0.16,0,0.29-0.13,0.29-0.29V18h-1.32H41.39z"/>
			</g>
			<g>
				<path class="st77" d="M2.86,18.47h3.66v3.94H2.86L2.86,18.47z"/>
			</g>
			<g>
				<path class="st77" d="M41.39,18.47v3.94h3.66v-3.94h-1.32H41.39z"/>
			</g>
			<g>
				<path class="st77" d="M8.58,12.94c0-0.62-0.5-1.12-1.12-1.12H4.92c-0.62,0-1.12,0.51-1.12,1.12v3.37h4.78V12.94z"/>
			</g>
			<g>
				<path class="st77" d="M13.36,12.94c0-0.62-0.5-1.12-1.12-1.12H9.7c-0.62,0-1.12,0.51-1.12,1.12v3.37h4.78V12.94z"/>
			</g>
			<g>
				<path class="st77" d="M23.97,16.32l0.36-1.87l-0.36-1.51c0-0.62-0.51-1.12-1.13-1.12H20.3c-0.62,0-1.13,0.51-1.13,1.12v3.37
					L23.97,16.32z"/>
			</g>
			<g>
				<path class="st77" d="M28.73,12.94c0-0.62-0.51-1.12-1.12-1.12h-2.53c-0.62,0-1.12,0.51-1.12,1.12v3.37h4.78L28.73,12.94z"/>
			</g>
			<g>
				<path class="st77" d="M39.43,12.94c0-0.62-0.51-1.12-1.13-1.12h-2.54c-0.62,0-1.13,0.51-1.13,1.12v3.37h4.8l0.68-1.72
					L39.43,12.94z"/>
			</g>
			<g>
				<path class="st78" d="M15.8,38.79l1.06-10.37L15.8,18.38h-5.44v23.16c0,0.41,0.33,0.74,0.74,0.74h3.95
					c0.41,0,0.74-0.33,0.74-0.74L15.8,38.79L15.8,38.79z"/>
			</g>
			<g>
				<path class="st78" d="M21.23,36.37l0.92-9.07l-0.92-8.82l-5.43-0.03v20.38c0,0.4,0.33,0.74,0.74,0.74h3.95
					c0.41,0,0.74-0.33,0.74-0.74L21.23,36.37z"/>
			</g>
			<g>
				<path class="st78" d="M26.67,33.36l0.96-7.05l-0.96-7.84h-5.44v17.91c0,0.41,0.33,0.74,0.74,0.74h3.95
					c0.41,0,0.74-0.33,0.74-0.74V33.36z"/>
			</g>
			<g>
				<path class="st78" d="M32.11,30.48l0.68-6.46l-0.68-5.65h-5.44v14.91c0,0.41,0.33,0.74,0.74,0.74h3.95
					c0.41,0,0.74-0.33,0.74-0.74L32.11,30.48L32.11,30.48z"/>
			</g>
			<g>
				<path class="st78" d="M37.55,30.48v-12.1h-5.44v12.1c0,0.41,0.33,0.74,0.74,0.74h3.95C37.21,31.22,37.55,30.89,37.55,30.48z"/>
			</g>
			<g>
				<path class="st79" d="M39.33,12.94c0-0.62-0.49-1.12-1.08-1.12h-1.22c0.59,0,1.08,0.51,1.08,1.12v3.37h1.22V12.94z"/>
			</g>
			<g>
				<path class="st79" d="M28.73,12.94c0-0.62-0.49-1.12-1.08-1.12h-1.22c0.59,0,1.08,0.51,1.08,1.12v3.37h1.22L28.73,12.94z"/>
			</g>
			<g>
				<path class="st79" d="M23.95,12.94c0-0.62-0.49-1.12-1.08-1.12h-1.22c0.59,0,1.08,0.51,1.08,1.12v3.37h1.22v-2L23.95,12.94z"/>
			</g>
			<g>
				<path class="st77" d="M44.11,12.94c0-0.62-0.51-1.12-1.12-1.12h-2.53c-0.62,0-1.12,0.51-1.12,1.12v3.37h4.78L44.11,12.94z"/>
			</g>
			<g>
				<path class="st79" d="M44.11,12.94c0-0.62-0.49-1.12-1.08-1.12h-1.22c0.59,0,1.08,0.51,1.08,1.12v3.37h1.22L44.11,12.94
					L44.11,12.94z"/>
			</g>
			<g>
				<path class="st79" d="M13.27,12.94c0-0.62-0.48-1.12-1.08-1.12h-1.22c0.59,0,1.08,0.51,1.08,1.12v3.37h1.22V12.94z"/>
			</g>
			<g>
				<path class="st79" d="M8.58,12.94c0-0.62-0.48-1.12-1.08-1.12H6.28c0.59,0,1.08,0.51,1.08,1.12v3.37h1.22V12.94z"/>
			</g>
			<g>
				<path class="st80" d="M37.55,30.48v-12.1l-2.06,0v12.1c0,0.41-0.33,0.74-0.74,0.74h2.05C37.21,31.22,37.55,30.89,37.55,30.48z"
					/>
			</g>
			<g>
				<path class="st80" d="M32.11,30.48v-12.1l-2.06,0v12.1v2.81c0,0.4-0.33,0.74-0.74,0.74h2.05c0.41,0,0.75-0.33,0.75-0.74
					L32.11,30.48L32.11,30.48z"/>
			</g>
			<g>
				<path class="st80" d="M26.77,33.38v-14.9l-2.16,0v14.89v3.02c0,0.4-0.35,0.74-0.78,0.74h2.11c0,0,0.74-0.37,0.73-0.78v-2.97
					H26.77z"/>
			</g>
			<g>
				<path class="st80" d="M21.23,36.33V18.38l-2.06,0v17.95v2.49c0,0.41-0.33,0.73-0.74,0.74h2.06c0.41,0,0.75-0.34,0.75-0.74
					L21.23,36.33L21.23,36.33z"/>
			</g>
			<g>
				<path class="st80" d="M15.8,38.79V18.38l-2.06,0v20.41v2.75c0,0.4-0.33,0.74-0.74,0.74h2.06c0.41,0,0.75-0.33,0.75-0.74
					L15.8,38.79L15.8,38.79z"/>
			</g>
			<g>
				<path class="st81" d="M47.2,18.98v-3.17c0-0.24-0.19-0.43-0.44-0.43h-2.61H39.4h-4.75h-5.91H24h-4.75h-5.91H8.6H3.85H1.23
					c-0.24,0-0.43,0.19-0.43,0.43v3.17c0,0.24,0.19,0.43,0.43,0.43h1.68h3.66h3.85h5.43h5.43h5.43h5.43h5.43h3.85h3.67h1.68
					C47.01,19.41,47.2,19.22,47.2,18.98z"/>
			</g>
			<g>
				<path class="st82" d="M47.2,18.98v-3.17c0-0.24-0.19-0.43-0.43-0.43h-2.61h-0.39c0.24,0,0.43,0.19,0.43,0.43v3.17
					c0,0.24-0.19,0.43-0.43,0.43h1.32h1.68C47.01,19.41,47.2,19.22,47.2,18.98z"/>
			</g>
			<g>
				<path class="st83" d="M29.75,6.83c-0.12,0-0.25-0.03-0.37-0.1l-9.02-5.4c-0.34-0.2-0.45-0.64-0.25-0.98
					c0.2-0.34,0.64-0.45,0.98-0.25l9.02,5.4c0.34,0.2,0.81,0.87,0.61,1.2C30.6,6.93,29.99,6.83,29.75,6.83L29.75,6.83z"/>
			</g>
			<g>
				<path class="st83" d="M18.18,6.83c-0.24,0-1.28,0.07-1.42-0.16c-0.2-0.34,0.71-0.97,1.05-1.17l9.02-5.4
					c0.34-0.2,0.78-0.09,0.98,0.25c0.2,0.34,0.09,0.78-0.25,0.98l-9.02,5.4C18.43,6.8,18.3,6.83,18.18,6.83z"/>
			</g>
			<g>
				<path class="st81" d="M17.58,8.48c0.82-0.49,1.09-1.55,0.59-2.37c-0.49-0.82-1.56-1.08-2.38-0.59s-1.08,1.55-0.59,2.37
					C15.7,8.71,16.76,8.98,17.58,8.48z"/>
			</g>
			<g>
				<path class="st81" d="M32.72,7.89c0.49-0.82,0.23-1.88-0.59-2.37c-0.82-0.49-1.88-0.23-2.38,0.59
					c-0.49,0.82-0.23,1.88,0.59,2.37C31.16,8.98,32.23,8.71,32.72,7.89z"/>
			</g>
		</g>
	</g>
</g>
<g id="Layer_2">
</g>
</svg>

<svg id="Acoustic_Grand_Keyboard" data-name="Acoustic Grand Keyboard" xmlns="http://www.w3.org/2000/svg" viewBox="0 0 48 48"><defs><style>.cls-1,.cls-8{fill:#a46a5a;}.cls-1,.cls-2,.cls-3,.cls-4,.cls-5,.cls-6,.cls-7{fill-rule:evenodd;}.cls-2{fill:#845252;}.cls-3{fill:#ffd05b;}.cls-4{fill:#704242;}.cls-5{fill:#ffc244;}.cls-6{fill:#596c76;}.cls-7{fill:#465a61;}</style></defs><path class="cls-1" d="M2.86,18V47.71a.29.29,0,0,0,.29.29H6.23a.29.29,0,0,0,.29-.29V18Z"/><path class="cls-1" d="M41.39,18V47.71a.29.29,0,0,0,.28.29h3.09a.28.28,0,0,0,.28-.29V18H41.39Z"/><path class="cls-2" d="M2.86,18.47H6.52v3.94H2.86Z"/><path class="cls-2" d="M41.39,18.47v3.94H45V18.47H41.39Z"/><path class="cls-2" d="M8.58,12.94a1.12,1.12,0,0,0-1.12-1.12H4.92A1.12,1.12,0,0,0,3.8,12.94v3.38H8.58Z"/><path class="cls-2" d="M13.36,12.94a1.12,1.12,0,0,0-1.12-1.12H9.7a1.12,1.12,0,0,0-1.12,1.12v3.38h4.78Z"/><path class="cls-2" d="M24,16.32l.36-1.87L24,12.94a1.13,1.13,0,0,0-1.13-1.12H20.3a1.13,1.13,0,0,0-1.13,1.12v3.38Z"/><path class="cls-2" d="M28.73,12.94a1.12,1.12,0,0,0-1.12-1.12H25.07A1.12,1.12,0,0,0,24,12.94v3.38h4.78Z"/><path class="cls-2" d="M39.43,12.94a1.12,1.12,0,0,0-1.12-1.12H35.77a1.13,1.13,0,0,0-1.13,1.12v3.38h4.79l.69-1.72Z"/><path class="cls-3" d="M15.8,38.79l1.06-10.37-1.06-10H10.36V41.54a.74.74,0,0,0,.74.74h4a.74.74,0,0,0,.74-.74V38.79Z"/><path class="cls-3" d="M21.23,36.37l.91-9.07-.91-8.83-5.43,0V38.83a.74.74,0,0,0,.74.73h3.95a.74.74,0,0,0,.74-.73Z"/><path class="cls-3" d="M26.67,33.36l1-7-1-7.85H21.23V36.39a.75.75,0,0,0,.75.74h3.95a.74.74,0,0,0,.74-.74Z"/><path class="cls-3" d="M32.11,30.48,32.79,24l-.68-5.64H26.67V33.29a.74.74,0,0,0,.74.74h3.95a.75.75,0,0,0,.75-.74V30.48Z"/><path class="cls-3" d="M37.55,30.48V18.38H32.11v12.1a.74.74,0,0,0,.74.74H36.8A.75.75,0,0,0,37.55,30.48Z"/><path class="cls-4" d="M39.33,12.94a1.11,1.11,0,0,0-1.09-1.12H37a1.1,1.1,0,0,1,1.08,1.12v3.38h1.22Z"/><path class="cls-4" d="M28.73,12.94a1.1,1.1,0,0,0-1.08-1.12H26.44a1.1,1.1,0,0,1,1.08,1.12v3.38h1.21Z"/><path class="cls-4" d="M24,12.94a1.1,1.1,0,0,0-1.08-1.12H21.66a1.1,1.1,0,0,1,1.07,1.12v3.38H24V12.94Z"/><path class="cls-2" d="M44.11,12.94A1.13,1.13,0,0,0,43,11.82H40.45a1.12,1.12,0,0,0-1.12,1.12v3.38h4.78Z"/><path class="cls-4" d="M44.11,12.94A1.11,1.11,0,0,0,43,11.82H41.81a1.1,1.1,0,0,1,1.08,1.12v3.38h1.22V12.94Z"/><path class="cls-4" d="M13.27,12.94a1.1,1.1,0,0,0-1.08-1.12H11a1.1,1.1,0,0,1,1.08,1.12v3.38h1.22Z"/><path class="cls-4" d="M8.58,12.94A1.1,1.1,0,0,0,7.5,11.82H6.28a1.1,1.1,0,0,1,1.08,1.12v3.38H8.58Z"/><path class="cls-5" d="M37.55,30.48V18.38H35.48v12.1a.74.74,0,0,1-.74.74h2A.75.75,0,0,0,37.55,30.48Z"/><path class="cls-5" d="M32.11,30.48V18.38H30.05V33.29a.75.75,0,0,1-.75.74h2.06a.75.75,0,0,0,.75-.74V30.48Z"/><path class="cls-5" d="M26.77,33.38V18.47H24.61V36.39a.77.77,0,0,1-.78.74h2.11s.74-.38.73-.78v-3Z"/><path class="cls-5" d="M21.23,36.33V18.38H19.17V38.82a.74.74,0,0,1-.74.74h2.05a.74.74,0,0,0,.75-.74V36.33Z"/><path class="cls-5" d="M15.8,38.79V18.38H13.74V41.54a.75.75,0,0,1-.75.74h2.06a.75.75,0,0,0,.75-.74V38.79Z"/><path class="cls-6" d="M47.2,19V15.81a.43.43,0,0,0-.44-.43H1.23a.43.43,0,0,0-.43.43V19a.43.43,0,0,0,.43.43H46.76A.43.43,0,0,0,47.2,19Z"/><path class="cls-7" d="M47.2,19V15.81a.43.43,0,0,0-.43-.43h-3a.43.43,0,0,1,.43.43V19a.43.43,0,0,1-.43.43h3A.43.43,0,0,0,47.2,19Z"/><path class="cls-8" d="M29.75,6.83a.68.68,0,0,1-.36-.1l-9-5.4A.72.72,0,0,1,21.1.1l9,5.4c.34.21.81.87.61,1.21s-.74.12-1,.12Z"/><path class="cls-8" d="M18.18,6.83c-.25,0-1.29.06-1.42-.16s.71-1,1-1.17l9-5.4a.72.72,0,0,1,1,.25.71.71,0,0,1-.24,1l-9,5.4A.68.68,0,0,1,18.18,6.83Z"/><path class="cls-6" d="M17.58,8.48a1.71,1.71,0,0,0,.59-2.36,1.72,1.72,0,1,0-.59,2.36Z"/><path class="cls-6" d="M32.72,7.89a1.73,1.73,0,0,0-.59-2.37,1.75,1.75,0,0,0-2.38.59,1.73,1.73,0,0,0,3,1.78Z"/></svg>
